BigSur-Originals/actions/16/zoom-in.svg

<svg version="1.1" viewBox="0 0 16 16" xmlns="http://www.w3.org/2000/svg">
 <defs>
  <style id="current-color-scheme" type="text/css">.ColorScheme-Text {
        color:#363636;
      }</style>
 </defs>
 <path class="ColorScheme-Text" d="m3 2c-0.554 0-1 0.446-1 1v1h1v-1h1v-1h-1zm4 0v1h2v-1h-2zm5 0v1h1v1h1v-1c0-0.554-0.446-1-1-1h-1zm-4 2v1h2.293l-3.293 3.293 0.70703 0.70703 3.293-3.293v2.293h1v-4h-1-3zm-6 3v2h1v-2h-1zm11 0v2h1v-2h-1zm-10 3c-0.554 0-1 0.446-1 1v2c0 0.554 0.446 1 1 1h2c0.554 0 1-0.446 1-1v-2c0-0.554-0.446-1-1-1h-2zm0 1h2v2h-2v-2zm10 1v1h-1v1h1c0.554 0 1-0.446 1-1v-1h-1zm-6 1v1h2v-1h-2z" fill="currentColor"/>
</svg>

<svg xmlns="http://www.w3.org/2000/svg" viewBox="0 0 16 16">
  <defs id="defs3051">
    <style type="text/css" id="current-color-scheme">
      .ColorScheme-Text {
        color:#363636;
      }
      </style>
  </defs>
 <path style="fill:currentColor;fill-opacity:1;stroke:none" 
       d="M 2 2 L 2 3 L 2 4 L 3 4 L 3 3 L 4 3 L 4 2 L 3 2 L 2 2 z M 7 2 L 7 3 L 9 3 L 9 2 L 7 2 z M 12 2 L 12 3 L 13 3 L 13 4 L 14 4 L 14 3 L 14 2 L 13 2 L 12 2 z M 8 4 L 8 5 L 10.292969 5 L 7 8.2929688 L 7.7070312 9 L 11 5.7070312 L 11 8 L 12 8 L 12 4 L 11 4 L 8 4 z M 2 7 L 2 9 L 3 9 L 3 7 L 2 7 z M 13 7 L 13 9 L 14 9 L 14 7 L 13 7 z M 2 10 L 2 14 L 6 14 L 6 10 L 2 10 z M 3 11 L 5 11 L 5 13 L 3 13 L 3 11 z M 13 12 L 13 13 L 12 13 L 12 14 L 13 14 L 14 14 L 14 12 L 13 12 z M 7 13 L 7 14 L 9 14 L 9 13 L 7 13 z "
     class="ColorScheme-Text"
     />
</svg>
